-----BEGIN PGP PUBLIC KEY BLOCK-----
Version: GnuPG v1.0.6 (MingW32)

mQGiBD4fwXIRBAC7WRS8PYxi2YH0T1mX4HCYsF8aHoqxBzMnyFR4J896m1s96vGM
BTSAwH2NKbiVqtfLokTbQkUVxtrgrF2HMB5NfYBg/JzT7pZL/Q2ThWUS7SJQQA4f
a7/DpiLiHalp6iX45om6JTdIWEyXv26csIVhmtlkGBEPRhNRX8X4//BM0wCg7wcA
yQ7c5NmoOJLVs+uHsRrnHo0D/R/dMyuWt7/o0eGIEuRlDl2q+YL8xLuVyJMXQBnd
jo7jKpQ+Q1zl93aVTzsJa7mP2zZ7jqaJ855sdz6rvwyhGF1/qYMtm6zrmgBy2XPm
J+57sfwSZr0bhIeMpCWjIw98z9sObq0v2r2oA3+J9E3Na/BZsCVTZVb3ew7ILmEp
F5D7A/4zvjY41dakCAJsD1Xo8TS6hSqJf4zq9vX3ayJVvUjeo8n4sHNOwcbEnnui
9zZaUH3F0x+3cDo7mS1Y4pD8THuqCZoSbSkiHnlved6nLXsKbqvVrVo+esEhfZCn
Iji3gp+2TVNwdHXGM+4BAzMJCLsdXjByO6SNzB9a+H8RsRlZKrQ8TWxhZGVuIFR1
cmsgKCoqKiBERUZBVUxUIFNJR05JTkcgS0VZICoqKikgPG10dXJrQGFwYWNoZS5v
cmc+iF0EExECAB0FAj4fwXIFCRLP94AFCwcKAwQDFQMCAxYCAQIXgAAKCRAcUGQH
VkwXo0jxAKCgHzXPIB4IAgoD7GMAohPQfX7j2QCeL6pAsf4pPufmPvbrrpDp6rQH
GOS5Ag0EPh/BhhAIAKWzq7+/+nNYGpc7sXGkDNo9xncxcx/KbbJVT0rBteuaonQ4
vYar1ITjIhOPmF9yPmpUddNrqgQTSO+Or+ZrVOndn+qC1gdY3qpKIN3KTjXloW38
0Y84ezwdRLznQNkhgXwNcB55l/Z9kLaW2MS8CJzOuYSQT1CYbXg7XP3684ZmV1KC
cGgcUt9VkIGqwsa2RFDNGvMbySedSkJ/70Q+PJlkXN+W86f8hi3HTjw2MCkNa5NL
+Byg8FEAm95YWrO6kCY3qaJYV7NRt9oVd+2V/NNzwYp3Or/QoYofvfNerupfwBmU
GEXPyZCqqNH6nDv6chscsWvEA9KzhsWnsdKhmHsAAwUH/R6LwfWgtpaO42dQI4ZS
VRBmCeWrXCuyVk0d13Yz0xLi5Z5m4g3MON3d+cRVUiyNX+hbDGpi2mkbsnL559Ef
iqmzDmSz5GQHDutolhOPtLxLrC537ODn2q7hnYQwIQYYIUtYD5sYlzfGYC8olGCB
IcKIdlGRWcxxiFCIJm5CX/jnSBsyDRpanlSrdkxhzAGsifqj4NQ19ayoeNoZg2ZP
9SLIY7vbmOxJeHEYkx8AG25xOY1PLotb/0buSXPB8e71zb/DCV1rAhhUxAr/2JOQ
RqlZBq6PfcHKLRitXRCeVvfldRxuWBIzhuTLUfRPYR6phjP50EzZPlbJzIvGwsOI
RheITAQYEQIADAUCPh/BhgUJEs/3gAAKCRAcUGQHVkwXoy0JAJ9WTfqfYzW/F6qi
5MxmqDnU9/G+6ACfQVmhZNnGTSfcwQCttwCaW3CRhDY=
=MWUr
-----END PGP PUBLIC KEY BLOCK-----
